X: 757
T: Old Sport
C:John Hartford version
B: jims roots
M:C|
L:1/8
Q: 1/4=100
K:A
V:1 
|:FD | "A"EA2c BAef | ecAc BAFC | EFAc BAef | "(Bm)"ecAc "E"B3A |
"A"EA2c BAef | ecAc BAFC | A,CEF "D"Acaf | "E"ecBG "A"A2 :|
|:eg | a2ag "(F#m)"fece | "A"agae "(F#m)"fecd | "A"eaga "(F#m)"fecd | "E"e"(1)"abc' b2ab |
"A"c'^bc'=b abaf | "(0)"e2af ec (3BcB | Aceg "D"fgaf | "E"ecBc "A"A2 :|
% abcbook-tune_id 6298c279528824741b5d5572


% abcbook-boost 0
% abcbook-tablature 
% abcbook-transpose 
% abcbook-lastupdated 1654178426096
% abcbook-soundfonts 
% abcbook-repeats 1


